images_elementary_svg/cmd/lc_actionmode.svg

<svg height="24" width="24" xmlns="http://www.w3.org/2000/svg" xmlns:xlink="http://www.w3.org/1999/xlink"><linearGradient id="a" gradientUnits="userSpaceOnUse" x1="17.461565" x2="17.461565" y1="12.132274" y2="23.876352"><stop offset="0" stop-color="#f6f6f6"/><stop offset="1" stop-color="#ccc"/></linearGradient><linearGradient id="b" gradientUnits="userSpaceOnUse" x1="14.525564" x2="14.525564" y1="12.132274" y2="23.879738"><stop offset="0" stop-color="#aaa"/><stop offset="1" stop-color="#8c8c8c"/></linearGradient><linearGradient id="c" gradientUnits="userSpaceOnUse" x1="10.127912" x2="9.984243" y1="12.048073" y2="3.95193"><stop offset="0" stop-color="#e5e5e5"/><stop offset="1" stop-color="#ababab"/></linearGradient><linearGradient id="d" gradientTransform="matrix(.77562455 0 0 .7756249 -43.981565 -9.61426)" gradientUnits="userSpaceOnUse" x1="71.204407" x2="71.204407" y1="15.369057" y2="40.495617"><stop offset="0" stop-color="#fff"/><stop offset=".42447853" stop-color="#fff" stop-opacity=".235294"/><stop offset=".82089913" stop-color="#fff" stop-opacity=".156863"/><stop offset="1" stop-color="#fff" stop-opacity=".392157"/></linearGradient><radialGradient id="e" cx="-14.890854" cy="11.546391" gradientTransform="matrix(.00000201 3.6145515 -3.7500018 -.00000001 55.773892 42.823757)" gradientUnits="userSpaceOnUse" r="19.99999"><stop offset="0" stop-color="#f0c1ff"/><stop offset=".26238" stop-color="#c5a3f2"/><stop offset=".704952" stop-color="#7a36b1"/><stop offset="1" stop-color="#4c2d81"/></radialGradient><radialGradient id="f" cx="62.625" cy="4.625" gradientTransform="matrix(.99142573 0 0 .2823525 -47.876172 19.592423)" gradientUnits="userSpaceOnUse" r="10.625"><stop offset="0"/><stop offset="1" stop-opacity="0"/></radialGradient><path d="m24.745763 20.898305c0 1.656854-4.716187 3-10.533898 3-5.8177125 0-10.5338989-1.343146-10.5338989-3s4.7161864-3 10.5338989-3c5.817711 0 10.533898 1.343146 10.533898 3z" fill="url(#f)" fill-rule="evenodd" opacity=".3"/><path d="m12 1.5000002c-5.7935374 0-10.4999999 4.7064618-10.4999999 10.4999998 0 5.793537 4.7064625 10.500001 10.4999999 10.5 5.793537 0 10.500004-4.706463 10.5-10.5 0-5.793538-4.706463-10.4999998-10.5-10.4999998z" fill="none" stroke="#6326b9" stroke-dasharray="2.444444 1.222222" stroke-opacity=".498039" stroke-width="1.222222" transform="matrix(.81818183 0 0 .81818183 .181818 .181818)"/><g transform="matrix(.81818183 0 0 .81818183 4.272727 4.090909)"><path d="m12 1.5000002c-5.7935374 0-10.4999999 4.7064618-10.4999999 10.4999998 0 5.793537 4.7064625 10.500001 10.4999999 10.5 5.793537 0 10.500004-4.706463 10.5-10.5 0-5.793538-4.706463-10.4999998-10.5-10.4999998z" fill="url(#e)" stroke="#6326b9" stroke-opacity=".498039" stroke-width="1.222222"/><path d="m21.5 12c0 5.246706-4.253305 9.5-9.5 9.5s-9.5-4.253294-9.5-9.5c0-5.246704 4.253305-9.5 9.5-9.5s9.5 4.253296 9.5 9.5z" fill="none" opacity=".5" stroke="url(#d)" stroke-linecap="round" stroke-linejoin="round"/></g><g transform="matrix(.73400013 0 0 .73400013 11.632274 12.132274)"><path d="m16.798828 12.5c-.165264 0-.298828.211412-.298828.474609v.763672h-.09766l-1.123047.480469-.07227.07422-.552734-.552735c-.18611-.186109-.430016-.241858-.546875-.125l-.992188.992188c-.116858.116859-.06111.360765.125.546875l.552735.552734-.07422.07227-.480469 1.123047v.097651h-.763663c-.263197 0-.474609.133564-.474609.298828v1.402344c0 .165264.211412.298828.474609.298828h.763672v.105469l.480469 1.123047.07031.06836-.548828.548828c-.186109.186109-.241858.430016-.125.546875l.992188.992188c.116859.116859.360765.06111.546875-.125l.548828-.548828.07617.07812 1.123047.482422h.09766v.753907c0 .263201.133564.474612.298828.474612h1.402344c.165264 0 .298828-.211411.298828-.474609v-.753907h.105469l1.123047-.482422.07227-.07422.544922.544922c.18611.186108.430016.241859.546875.125l.992188-.992188c.116858-.116859.06111-.360766-.125-.546875l-.544922-.544922.07422-.07227.482422-1.123047v-.105462h.753907c.26319 0 .474602-.133564.474602-.298828v-1.402344c0-.165264-.211412-.298828-.474609-.298828h-.753907v-.09766l-.482422-1.123047-.07812-.07617.548828-.548828c.186109-.18611.241858-.430016.125-.546875l-.992188-.992188c-.116859-.116858-.360765-.06111-.546875.125l-.548828.548828-.06836-.07031-1.123047-.480469h-.105472v-.763672c0-.263197-.133564-.474609-.298828-.474609zm.705078 4c.829457 0 1.503906.674449 1.503906 1.503906.000001.829457-.674449 1.503906-1.503906 1.503906-.829457.000001-1.503906-.674449-1.503906-1.503906s.674449-1.503906 1.503906-1.503906z" display="block" fill="url(#a)" stroke="url(#b)" stroke-linejoin="round" transform="matrix(1.3623976 0 0 1.3623976 -15.847782 -16.528981)"/><path d="m8 3.465116c-2.5005771 0-4.5348837 2.034307-4.5348837 4.534884s2.0343066 4.534884 4.5348837 4.534884c2.500576-.000001 4.534884-2.034307 4.534884-4.534884s-2.034308-4.534884-4.534884-4.534884zm0 2.093024c1.347907 0 2.44186 1.093953 2.44186 2.44186s-1.093953 2.44186-2.44186 2.44186-2.4418605-1.093953-2.4418605-2.44186 1.0939535-2.44186 2.4418605-2.44186z" opacity=".05"/><path d="m8.0000001 4c-2.2056004 0-4.0000002 1.7944001-4.0000002 4.0000008 0 2.2055992 1.7943998 3.9999992 4.0000002 3.9999992 2.2055999 0 3.9999999-1.7944 3.9999999-3.9999992 0-2.2056007-1.7944-4.0000008-3.9999999-4.0000008z" fill="none" stroke="url(#c)" stroke-width="1.352275"/></g></svg>

<?xml version="1.0" encoding="UTF-8" standalone="no"?>
<svg
   xmlns:dc="http://purl.org/dc/elements/1.1/"
   xmlns:cc="http://creativecommons.org/ns#"
   xmlns:rdf="http://www.w3.org/1999/02/22-rdf-syntax-ns#"
   xmlns:svg="http://www.w3.org/2000/svg"
   xmlns="http://www.w3.org/2000/svg"
   xmlns:sodipodi="http://sodipodi.sourceforge.net/DTD/sodipodi-0.dtd"
   xmlns:inkscape="http://www.inkscape.org/namespaces/inkscape"
   height="24"
   width="24"
   version="1.1"
   id="svg78"
   sodipodi:docname="lc_actionmode.svg"
   inkscape:version="0.92.3 (unknown)">
  <metadata
     id="metadata84">
    <rdf:RDF>
      <cc:Work
         rdf:about="">
        <dc:format>image/svg+xml</dc:format>
        <dc:type
           rdf:resource="http://purl.org/dc/dcmitype/StillImage" />
      </cc:Work>
    </rdf:RDF>
  </metadata>
  <defs
     id="defs82">
    <linearGradient
       id="a-3"
       gradientUnits="userSpaceOnUse"
       x1="17.461565"
       x2="17.461565"
       y1="12.132274"
       y2="23.876352">
      <stop
         offset="0"
         stop-color="#f6f6f6"
         id="stop1408" />
      <stop
         offset="1"
         stop-color="#ccc"
         id="stop1410" />
    </linearGradient>
    <linearGradient
       id="b-7"
       gradientUnits="userSpaceOnUse"
       x1="14.525564"
       x2="14.525564"
       y1="12.132274"
       y2="23.879738">
      <stop
         offset="0"
         stop-color="#aaa"
         id="stop1413" />
      <stop
         offset="1"
         stop-color="#8c8c8c"
         id="stop1415" />
    </linearGradient>
    <linearGradient
       id="c-5"
       gradientUnits="userSpaceOnUse"
       x1="10.127912"
       x2="9.9842434"
       y1="12.048073"
       y2="3.95193">
      <stop
         offset="0"
         stop-color="#e5e5e5"
         id="stop1418" />
      <stop
         offset="1"
         stop-color="#ababab"
         id="stop1420" />
    </linearGradient>
  </defs>
  <sodipodi:namedview
     pagecolor="#ffffff"
     bordercolor="#666666"
     borderopacity="1"
     objecttolerance="10"
     gridtolerance="10"
     guidetolerance="10"
     inkscape:pageopacity="0"
     inkscape:pageshadow="2"
     inkscape:window-width="1366"
     inkscape:window-height="706"
     id="namedview80"
     showgrid="false"
     inkscape:zoom="9.8333333"
     inkscape:cx="-1.7288136"
     inkscape:cy="11.186441"
     inkscape:window-x="0"
     inkscape:window-y="0"
     inkscape:window-maximized="1"
     inkscape:current-layer="svg78" />
  <mask
     id="a">
    <path
       d="m303.54129 125.90525h23.375v22.5h-23.375z"
       fill="url(#b)"
       id="path2" />
  </mask>
  <linearGradient
     id="b"
     gradientUnits="userSpaceOnUse"
     x1="316.47247"
     x2="317.62369"
     y1="138.89748"
     y2="141.19508">
    <stop
       offset="0"
       stop-color="#fff"
       id="stop5" />
    <stop
       offset="1"
       id="stop7" />
  </linearGradient>
  <linearGradient
     id="c"
     gradientTransform="matrix(.7811541 -.03481362 -.03481362 .7811541 70.230423 94.3198)"
     gradientUnits="userSpaceOnUse"
     x1="309.29663"
     x2="335.30014"
     y1="67.297691"
     y2="81.926315">
    <stop
       offset="0"
       stop-color="#d3d7cf"
       id="stop10" />
    <stop
       offset=".18303643"
       stop-color="#babdb6"
       id="stop12" />
    <stop
       offset=".31893486"
       stop-color="#fff"
       id="stop14" />
    <stop
       offset=".87643671"
       stop-color="#babdb6"
       id="stop16" />
    <stop
       offset="1"
       stop-color="#eeeeec"
       id="stop18" />
  </linearGradient>
  <linearGradient
     id="d"
     gradientTransform="matrix(.7811541 -.03481362 -.03481362 .7811541 70.230423 94.3198)"
     gradientUnits="userSpaceOnUse"
     x1="324.49731"
     x2="330.06076"
     y1="70.282364"
     y2="99.273735">
    <stop
       offset="0"
       stop-color="#888a85"
       id="stop21" />
    <stop
       offset="1"
       stop-color="#555753"
       id="stop23" />
  </linearGradient>
  <linearGradient
     id="e"
     gradientTransform="matrix(.801996 0 0 .7960034 69.746815 998.18246)"
     gradientUnits="userSpaceOnUse"
     x1="302.29202"
     x2="308.64914"
     y1="58.442768"
     y2="60.767513">
    <stop
       offset="0"
       stop-color="#babdb6"
       id="stop26" />
    <stop
       offset="1"
       stop-color="#fff"
       id="stop28" />
  </linearGradient>
  <linearGradient
     id="f"
     gradientTransform="matrix(.77562455 0 0 .7756249 -43.981565 -9.61426)"
     gradientUnits="userSpaceOnUse"
     x1="71.204407"
     x2="71.204407"
     y1="15.369057"
     y2="40.495617">
    <stop
       offset="0"
       stop-color="#fff"
       id="stop31" />
    <stop
       offset=".42447853"
       stop-color="#fff"
       stop-opacity=".235294"
       id="stop33" />
    <stop
       offset=".82089913"
       stop-color="#fff"
       stop-opacity=".156863"
       id="stop35" />
    <stop
       offset="1"
       stop-color="#fff"
       stop-opacity=".392157"
       id="stop37" />
  </linearGradient>
  <radialGradient
     id="g"
     cx="-14.890854"
     cy="11.546391"
     gradientTransform="matrix(.00000201 3.6145515 -3.7500018 -.00000001 55.773892 42.823757)"
     gradientUnits="userSpaceOnUse"
     r="19.99999">
    <stop
       offset="0"
       stop-color="#f0c1ff"
       id="stop40" />
    <stop
       offset=".26238"
       stop-color="#c5a3f2"
       id="stop42" />
    <stop
       offset=".704952"
       stop-color="#7a36b1"
       id="stop44" />
    <stop
       offset="1"
       stop-color="#4c2d81"
       id="stop46" />
  </radialGradient>
  <radialGradient
     id="h"
     cx="62.625"
     cy="4.625"
     gradientTransform="matrix(.99142573 0 0 .2823525 -47.876172 19.592423)"
     gradientUnits="userSpaceOnUse"
     r="10.625">
    <stop
       offset="0"
       id="stop49" />
    <stop
       offset="1"
       stop-opacity="0"
       id="stop51" />
  </radialGradient>
  <path
     d="m24.745763 20.898305c0 1.656854-4.716187 3-10.533898 3-5.8177125 0-10.5338989-1.343146-10.5338989-3s4.7161864-3 10.5338989-3c5.817711 0 10.533898 1.343146 10.533898 3z"
     fill="url(#h)"
     fill-rule="evenodd"
     opacity=".3"
     id="path54" />
  <path
     d="m12 1.5000002c-5.7935374 0-10.4999999 4.7064618-10.4999999 10.4999998 0 5.793537 4.7064625 10.500001 10.4999999 10.5 5.793537 0 10.500004-4.706463 10.5-10.5 0-5.793538-4.706463-10.4999998-10.5-10.4999998z"
     fill="none"
     stroke="#6326b9"
     stroke-dasharray="2.444444 1.222222"
     stroke-opacity=".498039"
     stroke-width="1.222222"
     transform="matrix(.81818183 0 0 .81818183 .181818 .181818)"
     id="path56" />
  <g
     transform="matrix(.81818183 0 0 .81818183 4.272727 4.090909)"
     id="g62">
    <path
       d="m12 1.5000002c-5.7935374 0-10.4999999 4.7064618-10.4999999 10.4999998 0 5.793537 4.7064625 10.500001 10.4999999 10.5 5.793537 0 10.500004-4.706463 10.5-10.5 0-5.793538-4.706463-10.4999998-10.5-10.4999998z"
       fill="url(#g)"
       stroke="#6326b9"
       stroke-opacity=".498039"
       stroke-width="1.222222"
       id="path58" />
    <path
       d="m21.5 12c0 5.246706-4.253305 9.5-9.5 9.5s-9.5-4.253294-9.5-9.5c0-5.246704 4.253305-9.5 9.5-9.5s9.5 4.253296 9.5 9.5z"
       fill="none"
       opacity=".5"
       stroke="url(#f)"
       stroke-linecap="round"
       stroke-linejoin="round"
       id="path60" />
  </g>
  <g
     transform="matrix(0.73400013,0,0,0.73400013,11.632274,12.132274)"
     id="g1469">
    <path
       style="display:block;fill:url(#a-3);stroke:url(#b-7);stroke-linejoin:round"
       inkscape:connector-curvature="0"
       d="M 16.798828,12.5 C 16.633564,12.5 16.5,12.711412 16.5,12.974609 v 0.763672 h -0.09766 l -1.123047,0.480469 -0.07227,0.07422 -0.552734,-0.552735 c -0.18611,-0.186109 -0.430016,-0.241858 -0.546875,-0.125 l -0.992188,0.992188 c -0.116858,0.116859 -0.06111,0.360765 0.125,0.546875 l 0.552735,0.552734 -0.07422,0.07227 -0.480469,1.123047 V 17 H 12.474609 C 12.211412,17 12,17.133564 12,17.298828 v 1.402344 C 12,18.866436 12.211412,19 12.474609,19 h 0.763672 v 0.105469 l 0.480469,1.123047 0.07031,0.06836 -0.548828,0.548828 c -0.186109,0.186109 -0.241858,0.430016 -0.125,0.546875 l 0.992188,0.992188 c 0.116859,0.116859 0.360765,0.06111 0.546875,-0.125 l 0.548828,-0.548828 0.07617,0.07812 1.123047,0.482422 H 16.5 v 0.753907 C 16.5,23.288589 16.633564,23.5 16.798828,23.5 h 1.402344 C 18.366436,23.5 18.5,23.288589 18.5,23.025391 v -0.753907 h 0.105469 l 1.123047,-0.482422 0.07227,-0.07422 0.544922,0.544922 c 0.18611,0.186108 0.430016,0.241859 0.546875,0.125 l 0.992188,-0.992188 c 0.116858,-0.116859 0.06111,-0.360766 -0.125,-0.546875 l -0.544922,-0.544922 0.07422,-0.07227 0.482422,-1.123047 V 19 h 0.753907 C 22.788588,19 23,18.866436 23,18.701172 V 17.298828 C 23,17.133564 22.788588,17 22.525391,17 h -0.753907 v -0.09766 l -0.482422,-1.123047 -0.07812,-0.07617 0.548828,-0.548828 c 0.186109,-0.18611 0.241858,-0.430016 0.125,-0.546875 l -0.992188,-0.992188 c -0.116859,-0.116858 -0.360765,-0.06111 -0.546875,0.125 l -0.548828,0.548828 -0.06836,-0.07031 -1.123047,-0.480469 H 18.5 V 12.974609 C 18.5,12.711412 18.366436,12.5 18.201172,12.5 Z m 0.705078,4 c 0.829457,0 1.503906,0.674449 1.503906,1.503906 10e-7,0.829457 -0.674449,1.503906 -1.503906,1.503906 C 16.674449,19.507813 16,18.833363 16,18.003906 16,17.174449 16.674449,16.5 17.503906,16.5 Z"
       display="block"
       transform="matrix(1.3623976,0,0,1.3623976,-15.847782,-16.528981)"
       id="path1463" />
    <path
       style="opacity:0.05"
       inkscape:connector-curvature="0"
       d="M 8,3.465116 C 5.4994229,3.465116 3.4651163,5.499423 3.4651163,8 3.4651163,10.500577 5.4994229,12.534884 8,12.534884 10.500576,12.534883 12.534884,10.500577 12.534884,8 12.534884,5.499423 10.500576,3.465116 8,3.465116 Z M 8,5.55814 c 1.347907,0 2.44186,1.093953 2.44186,2.44186 0,1.347907 -1.093953,2.44186 -2.44186,2.44186 C 6.652093,10.44186 5.5581395,9.347907 5.5581395,8 5.5581395,6.652093 6.652093,5.55814 8,5.55814 Z"
       id="path1465" />
    <path
       style="fill:none;stroke:url(#c-5);stroke-width:1.35227501"
       inkscape:connector-curvature="0"
       d="M 8.0000001,4 C 5.7943997,4 3.9999999,5.7944001 3.9999999,8.0000008 3.9999999,10.2056 5.7943997,12 8.0000001,12 10.2056,12 12,10.2056 12,8.0000008 12,5.7944001 10.2056,4 8.0000001,4 Z"
       id="path1467" />
  </g>
</svg>
